src/assets/svg/fb.svg

<svg width="24" height="24" viewBox="0 0 24 24" fill="none" xmlns="http://www.w3.org/2000/svg">
<path d="M12.5689 18.6666V12.5847H14.6104L14.916 10.2144H12.5689V8.70109C12.5689 8.01486 12.7595 7.54716 13.7436 7.54716L14.9988 7.54658V5.42667C14.7816 5.39789 14.0366 5.33337 13.1698 5.33337C11.3602 5.33337 10.1213 6.43792 10.1213 8.46647V10.2145H8.07452V12.5847H10.1212V18.6667L12.5689 18.6666Z" fill="white"/>
</svg>

<svg width="24" height="24" fill="none" xmlns="http://www.w3.org/2000/svg">
  <path
    d="M12.569 18.667v-6.082h2.041l.306-2.37h-2.347V8.7c0-.686.19-1.154 1.175-1.154h1.255v-2.12a16.823 16.823 0 00-1.83-.094c-1.809 0-3.048 1.105-3.048 3.133v1.748H8.075v2.37h2.046v6.083h2.448z"
    fill="#fff" /></svg>
